X: 6
T: Doctor O'Neill
C: anon.
O: Ireland
B: Francis O'Neill: "The Dance Music of Ireland" (1907) no. 6
R: Double jig
Z: Transcribed by Frank Nordberg - http://www.musicaviva.com
F: http://www.musicaviva.com/abc/tunes/ireland/oneill-1001/oneill-1001-000
6.abc
m: Nn3 = n o/n/ (3m/n/-n/
M: 6/8
L: 1/8
Q: 3/8=128
K: D
A|"   ~"Nd3 AFD|E2F G2 A|BGB Bcd|AGF EFA|"   ~"Nd3 AFD|\
E2 F G2 A|BGB Bcd|AFD D2:|A|"   ~"Nd3 ceA|dfe dcB|
AFA Bcd|AGF EFA|"   ~"Nd3 ceA|dfe dcB|AFA Bcd|AFD D2:|g|\
{g}fef afd|ded fed|gbg faf|gee e2 g|
{g}fef afd|ded fed|gbg fag|fdd d2:|g|\
{g}fdf ece|{e}dcB AFA|AFd AFd|AGF E2 g|{g}fdf ece|dcB AFA|
AFA Bcd|AFD D2::G|FAF GBG|FAG FED|FAF GBG|AGF E2G|\
FAF GBG|FAG FED|BGB Bcd|AFD D2:|
W:
W:
W: From Musica Viva - http://www.musicaviva.com
W: the Internet center for free sheet music downloads.


